Newaita-dark/apps/16/com.github.tkashkin.boiler.svg

<svg height="16" viewBox="0 0 16 16" width="16" xmlns="http://www.w3.org/2000/svg" xmlns:xlink="http://www.w3.org/1999/xlink"><linearGradient id="a"><stop offset="0" stop-opacity=".313726"/><stop offset=".222222" stop-opacity=".27451"/><stop offset="1" stop-opacity="0"/></linearGradient><radialGradient id="b" cx="450.908936" cy="189.579361" gradientTransform="matrix(.00000009 -.0390662 -.0703192 -.00000005 22.261576 31.797665)" gradientUnits="userSpaceOnUse" r="21.166656" xlink:href="#a"/><radialGradient id="c" cx="450.908936" cy="189.579361" gradientTransform="matrix(-.00000009 .0390662 .0703192 .00000005 -6.385059 -3.763741)" gradientUnits="userSpaceOnUse" r="21.166656" xlink:href="#a"/><radialGradient id="d" cx="450.908936" cy="189.579361" gradientTransform="matrix(-.00000009 -.0390662 .0703192 -.00000005 -6.385059 31.797665)" gradientUnits="userSpaceOnUse" r="21.166656" xlink:href="#a"/><radialGradient id="e" cx="450.908936" cy="189.579361" gradientTransform="matrix(.00000009 .0390662 -.0703192 .00000005 22.261575 -3.763741)" gradientUnits="userSpaceOnUse" r="21.166656" xlink:href="#a"/><linearGradient id="f" gradientTransform="matrix(.00668003 0 0 .031253 6.232693 6.719392)" gradientUnits="userSpaceOnUse" x1="255.323059" x2="255.323044" y1="233.5" y2="254.666656"><stop offset="0" stop-opacity=".27451"/><stop offset="1" stop-opacity="0"/></linearGradient><linearGradient id="g" gradientUnits="userSpaceOnUse" x1="9.26130600003" x2="9.26130600003" y1="14.0169675" y2="1.44805249998"><stop offset="0" stop-color="#ab47bc"/><stop offset="1" stop-color="#ba68c8"/></linearGradient><linearGradient id="h" gradientUnits="userSpaceOnUse" x1="7.938262" x2="7.938262" y1="14.0169675" y2="1.44805300003"><stop offset="0" stop-color="#bdbdbd"/><stop offset="1" stop-color="#e0e0e0"/></linearGradient><path d="m9.097656 14.015625h1.320313v-.660156h-1.320313zm0 0" fill="url(#b)"/><path d="m6.78125 14.015625h-1.324219v.664063h1.324219zm0 0" fill="url(#c)"/><path d="m6.78125 14.015625h-1.324219v-.660156h1.324219zm0 0" fill="url(#d)"/><path d="m9.097656 14.015625h1.320313v.664063h-1.320313zm0 0" fill="url(#e)"/><path d="m6.78125 13.851562h2.316406v.828126h-2.316406zm0 0" fill="url(#f)"/><path d="m7.9375 1.449219c3.472656 0 6.285156 2.8125 6.285156 6.285156 0 3.46875-2.8125 6.28125-6.285156 6.28125-3.46875 0-6.285156-2.8125-6.285156-6.28125 0-3.472656 2.816406-6.285156 6.285156-6.285156zm0 0" fill="url(#g)"/><path d="m7.9375 14.015625c-3.480469 0-6.285156-2.800781-6.285156-6.28125 0-.023437 0-.042969 0-.0625.035156 3.453125 2.824218 6.222656 6.285156 6.222656s6.253906-2.769531 6.285156-6.222656v.0625c0 3.480469-2.804687 6.28125-6.285156 6.28125zm0 0" fill-opacity=".196078"/><path d="m7.9375 1.449219c-3.480469 0-6.285156 2.800781-6.285156 6.285156v.058594c.035156-3.453125 2.824218-6.222657 6.285156-6.222657s6.253906 2.769532 6.285156 6.222657c0-.019531 0-.039063 0-.058594 0-3.484375-2.804687-6.285156-6.285156-6.285156zm0 0" fill="#fff" fill-opacity=".392157"/><path d="m7.9375 1.402344c-3.507812 0-6.332031 2.824218-6.332031 6.332031 0 3.503906 2.824219 6.328125 6.332031 6.328125s6.332031-2.824219 6.332031-6.328125c0-3.507813-2.824219-6.332031-6.332031-6.332031zm0 .09375c3.457031 0 6.238281 2.78125 6.238281 6.238281 0 3.453125-2.78125 6.234375-6.238281 6.234375s-6.238281-2.78125-6.238281-6.234375c0-3.457031 2.78125-6.238281 6.238281-6.238281zm0 0" fill="#212121"/><path d="m10.644531 6.558594c-.007812.507812.046875 1.0625-.207031 1.527344-.171875.289062-.449219.496093-.742188.652343.039063.648438.050782 1.574219-.320312 1.992188-.195312.226562-.445312.351562-.882812.378906-.667969.035156-1.355469.066406-2.011719-.09375-.3125-.089844-.71875-.179687-.820313-.539063-.15625-.308593-.074218-.65625-.101562-.992187-.023438-1.378906.183594-2.753906.414062-4.113281-.09375-.089844-.539062.046875-.539062-.285156 0-.332032.769531-.6875 1.171875-.714844.632812-.136719 1.292969-.082032 1.929687.007812.363282.140625.75.054688 1.121094.128906 1.011719.359376.984375 1.144532.988281 2.050782zm-.722656.542968c-.023437-.527343.050781-.996093-.15625-1.449218-.195313-.292969-.527344-.402344-.386719.191406.109375.714844.160156 1.429688.226563 2.148438.3125-.175782.292969-.585938.316406-.890626zm0 0" fill="url(#h)"/><path d="m7.449219 4.289062c-.285157 0-.566407.023438-.84375.082032-.402344.027344-1.171875.382812-1.171875.714844 0 .046874.007812.082031.023437.109374.128907-.296874.785157-.589843 1.148438-.609374.632812-.140626 1.292969-.085938 1.929687.003906.363282.140625.75.054687 1.121094.128906.957031.339844.984375 1.0625.988281 1.90625 0-.023438 0-.042969 0-.066406-.003906-.90625.023438-1.691406-.988281-2.050782-.371094-.074218-.757812.011719-1.121094-.128906-.355468-.050781-.722656-.089844-1.085937-.089844zm-1.507813 1.277344c-.210937 1.257813-.394531 2.53125-.382812 3.808594.007812-1.273438.203125-2.539062.414062-3.789062-.007812-.007813-.019531-.015626-.03125-.019532zm3.414063.160156c-.019531.066407-.015625.175782.023437.332032.109375.710937.160156 1.429687.226563 2.144531.3125-.175781.292969-.582031.316406-.890625 0-.054688-.003906-.105469-.003906-.15625-.019531.296875-.019531.667969-.3125.835938-.066407-.71875-.117188-1.433594-.226563-2.148438-.011718-.042969-.019531-.082031-.023437-.117188zm.5625 1.007813v.160156c0-.054687 0-.105469 0-.160156zm.726562.144531v.117188c0-.039063 0-.078125 0-.117188zm-.9375 2.066406c-.003906 0-.007812.003907-.011719.003907.007813.140625.015626.296875.019532.453125 0-.15625-.003906-.3125-.007813-.457032zm-4.144531.839844c0 .082032-.003906.164063 0 .246094 0-.082031.003906-.164062 0-.246094zm0 0" fill="#fff"/><path d="m5.46875 5.199219c-.023438.042969-.035156.082031-.035156.125 0 .296875.359375.214843.5.265625.011718-.078125.027344-.15625.039062-.230469-.078125-.078125-.402344.003906-.503906-.160156zm3.996094.203125c-.089844-.003906-.148438.089844-.105469.335937.054687-.171875.265625-.058593.40625.152344.128906.277344.148437.5625.152344.863281 0-.394531.011719-.761718-.152344-1.113281-.089844-.140625-.210937-.234375-.300781-.238281zm1.179687 1.222656v.265625c0-.03125 0-.0625 0-.09375 0-.058594 0-.117187 0-.171875zm-.726562.269531v.253907c0-.019532.003906-.042969.003906-.0625 0-.066407-.003906-.128907-.003906-.191407zm.726562.097657c-.003906.371093-.027343.746093-.207031 1.078124-.171875.289063-.449219.5-.742188.65625.003907.078126.007813.160157.011719.242188.289063-.152344.5625-.363281.730469-.648438.222656-.402343.207031-.875.207031-1.328124zm-5.085937 2.382812c-.003906.117188-.003906.234375 0 .347656.003906.027344.003906.050782.003906.074219.003906-.109375.003906-.21875-.003906-.324219 0-.03125 0-.066406 0-.097656zm4.15625.03125c-.011719.507812-.085938 1.027344-.339844 1.3125-.222656.257812-.550781.40625-.882812.375-.667969.035156-1.355469.066406-2.011719-.089844-.3125-.09375-.71875-.179687-.820313-.539062-.070312-.140625-.089844-.285156-.097656-.433594-.003906.234375-.007812.46875.097656.683594.101563.359375.507813.449218.820313.539062.65625.160156 1.34375.125 2.011719.09375.355468-.019531.65625-.125.882812-.378906.296875-.332031.347656-.984375.339844-1.5625zm0 0" fill-opacity=".235294"/><path d="m340.592475-5.14504c-.249976 16.248448 1.499857 33.996753-6.624367 48.870333-5.499475 9.249117-14.373628 15.873484-23.747733 20.873007 1.249881 20.748018 1.624845 50.37019-10.249021 63.743912-6.249403 7.249308-14.248639 11.248926-28.247302 12.123843-21.372959 1.124892-43.370859 2.124797-64.368853-2.999714-9.999046-2.874725-22.997804-5.749451-26.247494-17.248353-4.999522-9.874057-2.374773-20.997995-3.24969-31.746968-.749928-44.120787 5.874439-88.116585 13.248735-131.612432-2.999713-2.874725-17.248353 1.499857-17.248353-9.124128 0-10.623986 24.622649-21.9979 37.49642-22.872816 20.248066-4.374582 41.371049-2.624749 61.744103.249976 11.62389 4.49957 23.997709 1.749833 35.871575 4.124606 32.371908 11.498902 31.496992 36.621503 31.62198 65.618734zm-23.122792 17.373341c-.749928-16.873389 1.624845-31.871957-4.999522-46.370572-6.249404-9.374105-16.873389-12.873771-12.373819 6.124415 3.499666 22.872816 5.124511 45.745632 7.249308 68.743435 9.999045-5.624462 9.374105-18.748209 10.124033-28.497278zm0 0" fill="none" stroke="#212121" stroke-width="3" transform="matrix(.031253 0 0 .031253 0 6.719392)"/></svg>

<?xml version="1.0" encoding="UTF-8"?>
<svg xmlns="http://www.w3.org/2000/svg" xmlns:xlink="http://www.w3.org/1999/xlink" width="16px" height="16px" viewBox="0 0 16 16" version="1.1">
<defs>
<radialGradient id="radial0" gradientUnits="userSpaceOnUse" cx="450.908936" cy="189.579361" fx="450.908936" fy="189.579361" r="21.166656" gradientTransform="matrix(0.0000000870852,-0.0390662,-0.0703192,-0.0000000507693,22.261576,31.797665)">
<stop offset="0" style="stop-color:rgb(0%,0%,0%);stop-opacity:0.313726;"/>
<stop offset="0.222222" style="stop-color:rgb(0%,0%,0%);stop-opacity:0.27451;"/>
<stop offset="1" style="stop-color:rgb(0%,0%,0%);stop-opacity:0;"/>
</radialGradient>
<radialGradient id="radial1" gradientUnits="userSpaceOnUse" cx="450.908936" cy="189.579361" fx="450.908936" fy="189.579361" r="21.166656" gradientTransform="matrix(-0.0000000870852,0.0390662,0.0703192,0.0000000507693,-6.385059,-3.763741)">
<stop offset="0" style="stop-color:rgb(0%,0%,0%);stop-opacity:0.313726;"/>
<stop offset="0.222222" style="stop-color:rgb(0%,0%,0%);stop-opacity:0.27451;"/>
<stop offset="1" style="stop-color:rgb(0%,0%,0%);stop-opacity:0;"/>
</radialGradient>
<radialGradient id="radial2" gradientUnits="userSpaceOnUse" cx="450.908936" cy="189.579361" fx="450.908936" fy="189.579361" r="21.166656" gradientTransform="matrix(-0.0000000870852,-0.0390662,0.0703192,-0.0000000507693,-6.385059,31.797665)">
<stop offset="0" style="stop-color:rgb(0%,0%,0%);stop-opacity:0.313726;"/>
<stop offset="0.222222" style="stop-color:rgb(0%,0%,0%);stop-opacity:0.27451;"/>
<stop offset="1" style="stop-color:rgb(0%,0%,0%);stop-opacity:0;"/>
</radialGradient>
<radialGradient id="radial3" gradientUnits="userSpaceOnUse" cx="450.908936" cy="189.579361" fx="450.908936" fy="189.579361" r="21.166656" gradientTransform="matrix(0.0000000870852,0.0390662,-0.0703192,0.0000000507693,22.261575,-3.763741)">
<stop offset="0" style="stop-color:rgb(0%,0%,0%);stop-opacity:0.313726;"/>
<stop offset="0.222222" style="stop-color:rgb(0%,0%,0%);stop-opacity:0.27451;"/>
<stop offset="1" style="stop-color:rgb(0%,0%,0%);stop-opacity:0;"/>
</radialGradient>
<linearGradient id="linear0" gradientUnits="userSpaceOnUse" x1="255.323059" y1="233.5" x2="255.323044" y2="254.666656" gradientTransform="matrix(0.00668003,0,0,0.031253,6.232693,6.719392)">
<stop offset="0" style="stop-color:rgb(0%,0%,0%);stop-opacity:0.27451;"/>
<stop offset="1" style="stop-color:rgb(0%,0%,0%);stop-opacity:0;"/>
</linearGradient>
<linearGradient id="linear1" gradientUnits="userSpaceOnUse" x1="296.333344" y1="233.5" x2="296.333344" y2="-168.666672" gradientTransform="matrix(0.031253,0,0,0.031253,0,6.719392)">
<stop offset="0" style="stop-color:rgb(67.058825%,27.843139%,73.725492%);stop-opacity:1;"/>
<stop offset="1" style="stop-color:rgb(72.941178%,40.784314%,78.431374%);stop-opacity:1;"/>
</linearGradient>
<linearGradient id="linear2" gradientUnits="userSpaceOnUse" x1="254" y1="233.5" x2="254" y2="-168.666656" gradientTransform="matrix(0.031253,0,0,0.031253,0,6.719392)">
<stop offset="0" style="stop-color:rgb(74.117649%,74.117649%,74.117649%);stop-opacity:1;"/>
<stop offset="1" style="stop-color:rgb(87.843138%,87.843138%,87.843138%);stop-opacity:1;"/>
</linearGradient>
</defs>
<g id="surface1">
<path style=" stroke:none;fill-rule:nonzero;fill:url(#radial0);" d="M 9.097656 14.015625 L 10.417969 14.015625 L 10.417969 13.355469 L 9.097656 13.355469 Z M 9.097656 14.015625 "/>
<path style=" stroke:none;fill-rule:nonzero;fill:url(#radial1);" d="M 6.78125 14.015625 L 5.457031 14.015625 L 5.457031 14.679688 L 6.78125 14.679688 Z M 6.78125 14.015625 "/>
<path style=" stroke:none;fill-rule:nonzero;fill:url(#radial2);" d="M 6.78125 14.015625 L 5.457031 14.015625 L 5.457031 13.355469 L 6.78125 13.355469 Z M 6.78125 14.015625 "/>
<path style=" stroke:none;fill-rule:nonzero;fill:url(#radial3);" d="M 9.097656 14.015625 L 10.417969 14.015625 L 10.417969 14.679688 L 9.097656 14.679688 Z M 9.097656 14.015625 "/>
<path style=" stroke:none;fill-rule:nonzero;fill:url(#linear0);" d="M 6.78125 13.851562 L 9.097656 13.851562 L 9.097656 14.679688 L 6.78125 14.679688 Z M 6.78125 13.851562 "/>
<path style=" stroke:none;fill-rule:nonzero;fill:url(#linear1);" d="M 7.9375 1.449219 C 11.410156 1.449219 14.222656 4.261719 14.222656 7.734375 C 14.222656 11.203125 11.410156 14.015625 7.9375 14.015625 C 4.46875 14.015625 1.652344 11.203125 1.652344 7.734375 C 1.652344 4.261719 4.46875 1.449219 7.9375 1.449219 Z M 7.9375 1.449219 "/>
<path style=" stroke:none;fill-rule:nonzero;fill:rgb(0%,0%,0%);fill-opacity:0.196078;" d="M 7.9375 14.015625 C 4.457031 14.015625 1.652344 11.214844 1.652344 7.734375 C 1.652344 7.710938 1.652344 7.691406 1.652344 7.671875 C 1.6875 11.125 4.476562 13.894531 7.9375 13.894531 C 11.398438 13.894531 14.191406 11.125 14.222656 7.671875 C 14.222656 7.691406 14.222656 7.710938 14.222656 7.734375 C 14.222656 11.214844 11.417969 14.015625 7.9375 14.015625 Z M 7.9375 14.015625 "/>
<path style=" stroke:none;fill-rule:nonzero;fill:rgb(100%,100%,100%);fill-opacity:0.392157;" d="M 7.9375 1.449219 C 4.457031 1.449219 1.652344 4.25 1.652344 7.734375 C 1.652344 7.753906 1.652344 7.773438 1.652344 7.792969 C 1.6875 4.339844 4.476562 1.570312 7.9375 1.570312 C 11.398438 1.570312 14.191406 4.339844 14.222656 7.792969 C 14.222656 7.773438 14.222656 7.753906 14.222656 7.734375 C 14.222656 4.25 11.417969 1.449219 7.9375 1.449219 Z M 7.9375 1.449219 "/>
<path style=" stroke:none;fill-rule:nonzero;fill:rgb(12.941177%,12.941177%,12.941177%);fill-opacity:1;" d="M 7.9375 1.402344 C 4.429688 1.402344 1.605469 4.226562 1.605469 7.734375 C 1.605469 11.238281 4.429688 14.0625 7.9375 14.0625 C 11.445312 14.0625 14.269531 11.238281 14.269531 7.734375 C 14.269531 4.226562 11.445312 1.402344 7.9375 1.402344 Z M 7.9375 1.496094 C 11.394531 1.496094 14.175781 4.277344 14.175781 7.734375 C 14.175781 11.1875 11.394531 13.96875 7.9375 13.96875 C 4.480469 13.96875 1.699219 11.1875 1.699219 7.734375 C 1.699219 4.277344 4.480469 1.496094 7.9375 1.496094 Z M 7.9375 1.496094 "/>
<path style=" stroke:none;fill-rule:nonzero;fill:url(#linear2);" d="M 10.644531 6.558594 C 10.636719 7.066406 10.691406 7.621094 10.4375 8.085938 C 10.265625 8.375 9.988281 8.582031 9.695312 8.738281 C 9.734375 9.386719 9.746094 10.3125 9.375 10.730469 C 9.179688 10.957031 8.929688 11.082031 8.492188 11.109375 C 7.824219 11.144531 7.136719 11.175781 6.480469 11.015625 C 6.167969 10.925781 5.761719 10.835938 5.660156 10.476562 C 5.503906 10.167969 5.585938 9.820312 5.558594 9.484375 C 5.535156 8.105469 5.742188 6.730469 5.972656 5.371094 C 5.878906 5.28125 5.433594 5.417969 5.433594 5.085938 C 5.433594 4.753906 6.203125 4.398438 6.605469 4.371094 C 7.238281 4.234375 7.898438 4.289062 8.535156 4.378906 C 8.898438 4.519531 9.285156 4.433594 9.65625 4.507812 C 10.667969 4.867188 10.640625 5.652344 10.644531 6.558594 Z M 9.921875 7.101562 C 9.898438 6.574219 9.972656 6.105469 9.765625 5.652344 C 9.570312 5.359375 9.238281 5.25 9.378906 5.84375 C 9.488281 6.558594 9.539062 7.273438 9.605469 7.992188 C 9.917969 7.816406 9.898438 7.40625 9.921875 7.101562 Z M 9.921875 7.101562 "/>
<path style=" stroke:none;fill-rule:nonzero;fill:rgb(100%,100%,100%);fill-opacity:1;" d="M 7.449219 4.289062 C 7.164062 4.289062 6.882812 4.3125 6.605469 4.371094 C 6.203125 4.398438 5.433594 4.753906 5.433594 5.085938 C 5.433594 5.132812 5.441406 5.167969 5.457031 5.195312 C 5.585938 4.898438 6.242188 4.605469 6.605469 4.585938 C 7.238281 4.445312 7.898438 4.5 8.535156 4.589844 C 8.898438 4.730469 9.285156 4.644531 9.65625 4.71875 C 10.613281 5.058594 10.640625 5.78125 10.644531 6.625 C 10.644531 6.601562 10.644531 6.582031 10.644531 6.558594 C 10.640625 5.652344 10.667969 4.867188 9.65625 4.507812 C 9.285156 4.433594 8.898438 4.519531 8.535156 4.378906 C 8.179688 4.328125 7.8125 4.289062 7.449219 4.289062 Z M 5.941406 5.566406 C 5.730469 6.824219 5.546875 8.097656 5.558594 9.375 C 5.566406 8.101562 5.761719 6.835938 5.972656 5.585938 C 5.964844 5.578125 5.953125 5.570312 5.941406 5.566406 Z M 9.355469 5.726562 C 9.335938 5.792969 9.339844 5.902344 9.378906 6.058594 C 9.488281 6.769531 9.539062 7.488281 9.605469 8.203125 C 9.917969 8.027344 9.898438 7.621094 9.921875 7.3125 C 9.921875 7.257812 9.917969 7.207031 9.917969 7.15625 C 9.898438 7.453125 9.898438 7.824219 9.605469 7.992188 C 9.539062 7.273438 9.488281 6.558594 9.378906 5.84375 C 9.367188 5.800781 9.359375 5.761719 9.355469 5.726562 Z M 9.917969 6.734375 C 9.917969 6.789062 9.917969 6.839844 9.917969 6.894531 C 9.917969 6.839844 9.917969 6.789062 9.917969 6.734375 Z M 10.644531 6.878906 C 10.644531 6.917969 10.644531 6.957031 10.644531 6.996094 C 10.644531 6.957031 10.644531 6.917969 10.644531 6.878906 Z M 9.707031 8.945312 C 9.703125 8.945312 9.699219 8.949219 9.695312 8.949219 C 9.703125 9.089844 9.710938 9.246094 9.714844 9.402344 C 9.714844 9.246094 9.710938 9.089844 9.707031 8.945312 Z M 5.5625 9.785156 C 5.5625 9.867188 5.558594 9.949219 5.5625 10.03125 C 5.5625 9.949219 5.566406 9.867188 5.5625 9.785156 Z M 5.5625 9.785156 "/>
<path style=" stroke:none;fill-rule:nonzero;fill:rgb(0%,0%,0%);fill-opacity:0.235294;" d="M 5.46875 5.199219 C 5.445312 5.242188 5.433594 5.28125 5.433594 5.324219 C 5.433594 5.621094 5.792969 5.539062 5.933594 5.589844 C 5.945312 5.511719 5.960938 5.433594 5.972656 5.359375 C 5.894531 5.28125 5.570312 5.363281 5.46875 5.199219 Z M 9.464844 5.402344 C 9.375 5.398438 9.316406 5.492188 9.359375 5.738281 C 9.414062 5.566406 9.625 5.679688 9.765625 5.890625 C 9.894531 6.167969 9.914062 6.453125 9.917969 6.753906 C 9.917969 6.359375 9.929688 5.992188 9.765625 5.640625 C 9.675781 5.5 9.554688 5.40625 9.464844 5.402344 Z M 10.644531 6.625 C 10.644531 6.710938 10.644531 6.800781 10.644531 6.890625 C 10.644531 6.859375 10.644531 6.828125 10.644531 6.796875 C 10.644531 6.738281 10.644531 6.679688 10.644531 6.625 Z M 9.917969 6.894531 C 9.917969 6.976562 9.917969 7.0625 9.917969 7.148438 C 9.917969 7.128906 9.921875 7.105469 9.921875 7.085938 C 9.921875 7.019531 9.917969 6.957031 9.917969 6.894531 Z M 10.644531 6.992188 C 10.640625 7.363281 10.617188 7.738281 10.4375 8.070312 C 10.265625 8.359375 9.988281 8.570312 9.695312 8.726562 C 9.699219 8.804688 9.703125 8.886719 9.707031 8.96875 C 9.996094 8.816406 10.269531 8.605469 10.4375 8.320312 C 10.660156 7.917969 10.644531 7.445312 10.644531 6.992188 Z M 5.558594 9.375 C 5.554688 9.492188 5.554688 9.609375 5.558594 9.722656 C 5.5625 9.75 5.5625 9.773438 5.5625 9.796875 C 5.566406 9.6875 5.566406 9.578125 5.558594 9.472656 C 5.558594 9.441406 5.558594 9.40625 5.558594 9.375 Z M 9.714844 9.40625 C 9.703125 9.914062 9.628906 10.433594 9.375 10.71875 C 9.152344 10.976562 8.824219 11.125 8.492188 11.09375 C 7.824219 11.128906 7.136719 11.160156 6.480469 11.003906 C 6.167969 10.910156 5.761719 10.824219 5.660156 10.464844 C 5.589844 10.324219 5.570312 10.179688 5.5625 10.03125 C 5.558594 10.265625 5.554688 10.5 5.660156 10.714844 C 5.761719 11.074219 6.167969 11.164062 6.480469 11.253906 C 7.136719 11.414062 7.824219 11.378906 8.492188 11.347656 C 8.847656 11.328125 9.148438 11.222656 9.375 10.96875 C 9.671875 10.636719 9.722656 9.984375 9.714844 9.40625 Z M 9.714844 9.40625 "/>
<path style="fill:none;stroke-width:3;stroke-linecap:butt;stroke-linejoin:miter;stroke:rgb(12.941177%,12.941177%,12.941177%);stroke-opacity:1;stroke-miterlimit:4;" d="M 340.592475 -5.14504 C 340.342499 11.103408 342.092332 28.851713 333.968108 43.725293 C 328.468633 52.97441 319.59448 59.598777 310.220375 64.5983 C 311.470256 85.346318 311.84522 114.96849 299.971354 128.342212 C 293.721951 135.59152 285.722715 139.591138 271.724052 140.466055 C 250.351093 141.590947 228.353193 142.590852 207.355199 137.466341 C 197.356153 134.591616 184.357395 131.71689 181.107705 120.217988 C 176.108183 110.343931 178.732932 99.219993 177.858015 88.47102 C 177.108087 44.350233 183.732454 0.354435 191.10675 -43.141412 C 188.107037 -46.016137 173.858397 -41.641555 173.858397 -52.26554 C 173.858397 -62.889526 198.481046 -74.26344 211.354817 -75.138356 C 231.602883 -79.512938 252.725866 -77.763105 273.09892 -74.88838 C 284.72281 -70.38881 297.096629 -73.138547 308.970495 -70.763774 C 341.342403 -59.264872 340.467487 -34.142271 340.592475 -5.14504 Z M 317.469683 12.228301 C 316.719755 -4.645088 319.094528 -19.643656 312.470161 -34.142271 C 306.220757 -43.516376 295.596772 -47.016042 300.096342 -28.017856 C 303.596008 -5.14504 305.220853 17.727776 307.34565 40.725579 C 317.344695 35.101117 316.719755 21.97737 317.469683 12.228301 Z M 317.469683 12.228301 " transform="matrix(0.031253,0,0,0.031253,0,6.719392)"/>
</g>
</svg>
